icons/Finance/vip-line.svg

<svg viewBox="0 0 24 24" xmlns="http://www.w3.org/2000/svg"><path d="M2.00488 19H22.0049V21H2.00488V19ZM11.0049 8H13.0049V16H11.0049V8ZM7.97001 8L6.10912 13.1127L4.24824 8H2.12334L5.10912 15.9637H7.10912L10.0949 8H7.97001ZM17.0049 14V16H15.0049V8H19.0049C20.6617 8 22.0049 9.34315 22.0049 11C22.0049 12.6569 20.6617 14 19.0049 14H17.0049ZM17.0049 10V12H19.0049C19.5572 12 20.0049 11.5523 20.0049 11C20.0049 10.4477 19.5572 10 19.0049 10H17.0049ZM2.00488 3H22.0049V5H2.00488V3Z"/></svg>

<svg xmlns="http://www.w3.org/2000/svg" viewBox="0 0 24 24">
    <g>
        <path fill="none" d="M0 0h24v24H0z"/>
        <path d="M2 19h20v2H2v-2zm9-11h2v8h-2V8zM7.965 8h2.125l-2.986 7.964h-2L2.118 8h2.125l1.861 5.113L7.965 8zM17 14v2h-2V8h4a3 3 0 0 1 0 6h-2zm0-4v2h2a1 1 0 0 0 0-2h-2zM2 3h20v2H2V3z"/>
    </g>
</svg>
